packages/illustrations/src/search.svg

<svg width="124" height="124" viewBox="0 0 124 124" fill="none" xmlns="http://www.w3.org/2000/svg">
<circle cx="65.6763" cy="58.5" r="43" fill="#EBEEF1" stroke="#B7C2CE"/>
<rect x="8.69808" y="35.014" width="35" height="35" rx="1.5" transform="rotate(-35.8375 8.69808 35.014)" fill="white" stroke="#B7C2CE"/>
<rect x="13.5847" y="35.8021" width="28" height="28" rx="1" transform="rotate(-35.8375 13.5847 35.8021)" fill="#EBEEF1"/>
<circle cx="24.754" cy="37.6037" r="2" transform="rotate(-35.8375 24.754 37.6037)" fill="#99A9BA"/>
<path d="M28.4506 41.6701L28.0255 47.7981C27.9962 48.221 28.4734 48.4863 28.8171 48.2381L35.193 43.6332C35.5367 43.385 35.435 42.8486 35.0243 42.7435L29.0734 41.2204C28.7709 41.1429 28.4722 41.3586 28.4506 41.6701Z" fill="#99A9BA"/>
<path d="M33.3335 35.588L32.1521 44.7909C32.0964 45.2251 32.586 45.5162 32.9408 45.2599L43.2298 37.829C43.5846 37.5727 43.4622 37.0165 43.0325 36.9329L33.9249 35.1609C33.6414 35.1057 33.3703 35.3016 33.3335 35.588Z" fill="#B7C2CE"/>
<rect x="83.8264" y="11.703" width="35" height="35" rx="1.5" transform="rotate(38.8338 83.8264 11.703)" fill="white" stroke="#B7C2CE"/>
<rect x="84.3582" y="16.6241" width="28" height="28" rx="1" transform="rotate(38.8338 84.3582 16.6241)" fill="#EBEEF1"/>
<circle cx="85.5733" cy="27.8724" r="2" transform="rotate(38.8338 85.5733 27.8724)" fill="#99A9BA"/>
<path d="M82.6289 32.5124L76.6065 33.7224C76.1909 33.8059 76.0612 34.3363 76.3914 34.6021L82.518 39.534C82.8482 39.7998 83.3386 39.5598 83.3315 39.136L83.2273 32.9941C83.222 32.6819 82.935 32.4509 82.6289 32.5124Z" fill="#99A9BA"/>
<path d="M89.7853 35.6136L80.5975 36.9071C80.1641 36.9682 80.0127 37.5173 80.3537 37.7918L90.2402 45.7503C90.5811 46.0248 91.0853 45.7596 91.0523 45.3232L90.3536 36.0711C90.3319 35.7831 90.0713 35.5734 89.7853 35.6136Z" fill="#B7C2CE"/>
<rect x="44.8417" y="80.5819" width="35" height="35" rx="1.5" transform="rotate(-25.2257 44.8417 80.5819)" fill="white" stroke="#B7C2CE"/>
<rect x="49.4995" y="82.2565" width="28" height="28" rx="1" transform="rotate(-25.2257 49.4995 82.2565)" fill="#EBEEF1"/>
<circle cx="60.146" cy="86.0841" r="2" transform="rotate(-25.2257 60.146 86.0841)" fill="#99A9BA"/>
<path d="M63.0306 90.7618L61.4843 96.7067C61.3776 97.117 61.7978 97.4655 62.1813 97.2849L69.2962 93.9329C69.6797 93.7523 69.6785 93.2063 69.2942 93.0274L63.7256 90.4344C63.4425 90.3026 63.1092 90.4596 63.0306 90.7618Z" fill="#99A9BA"/>
<path d="M68.95 85.6829L66.0941 94.5108C65.9593 94.9273 66.3869 95.3036 66.7829 95.117L78.2643 89.708C78.6603 89.5215 78.6424 88.9522 78.2355 88.7909L69.6099 85.372C69.3414 85.2655 69.0389 85.4081 68.95 85.6829Z" fill="#B7C2CE"/>
<circle cx="47.6763" cy="43.5" r="6" fill="#DDE2E8" stroke="#778DA8"/>
<circle cx="84.6763" cy="43.5" r="6" fill="#DDE2E8" stroke="#778DA8"/>
<path d="M41.6763 41.4999C36.4415 44.1173 32.2553 54.5117 30.5063 60.349C30.3272 60.9468 30.7488 61.5493 31.3705 61.6029L58.688 63.9579C58.996 63.9845 59.299 63.8671 59.5087 63.6399L64.8199 57.8861C65.043 57.6444 65.133 57.3084 65.0605 56.9875L61.6763 42L55.181 43.3918C54.8644 43.4596 54.5371 43.3679 54.2858 43.1637C52.0359 41.3354 46.9446 38.8658 41.6763 41.4999Z" fill="#DDE2E8" stroke="#778DA8"/>
<path d="M90.6763 41.4999C95.9111 44.1173 100.097 54.5117 101.846 60.349C102.025 60.9468 101.604 61.5493 100.982 61.6029L73.6645 63.9579C73.3565 63.9845 73.0536 63.8671 72.8439 63.6399L67.5326 57.8861C67.3095 57.6444 67.2195 57.3084 67.292 56.9875L70.6763 42L77.1715 43.3918C77.4882 43.4596 77.8154 43.3679 78.0668 43.1637C80.3166 41.3354 85.408 38.8658 90.6763 41.4999Z" fill="#DDE2E8" stroke="#778DA8"/>
<circle cx="44.1763" cy="68" r="15.5" fill="#DDE2E8" stroke="#778DA8"/>
<circle cx="89.1763" cy="68" r="15.5" fill="#DDE2E8" stroke="#778DA8"/>
<circle cx="44.1763" cy="68" r="11.5" fill="#DDE2E8" stroke="#778DA8"/>
<circle cx="89.1763" cy="68" r="11.5" fill="#DDE2E8" stroke="#778DA8"/>
<circle cx="44.1763" cy="66" r="9.5" fill="#DDE2E8" stroke="#778DA8"/>
<circle cx="89.1763" cy="66" r="9.5" fill="#DDE2E8" stroke="#778DA8"/>
<path d="M44.1763 60C43.3883 60 42.6081 60.1552 41.8802 60.4567C41.1522 60.7583 40.4908 61.2002 39.9336 61.7574C39.3765 62.3145 38.9345 62.9759 38.633 63.7039C38.3315 64.4319 38.1763 65.2121 38.1763 66" stroke="white" stroke-linecap="round"/>
<path d="M89.1763 60C88.3883 60 87.6081 60.1552 86.8802 60.4567C86.1522 60.7583 85.4908 61.2002 84.9336 61.7574C84.3765 62.3145 83.9345 62.9759 83.633 63.7039C83.3315 64.4319 83.1763 65.2121 83.1763 66" stroke="white" stroke-linecap="round"/>
<mask id="path-29-inside-1_1361_37176" fill="white">
<path fill-rule="evenodd" clip-rule="evenodd" d="M71.1763 44V54C71.1763 56.7614 68.9377 59 66.1763 59C63.4148 59 61.1763 56.7614 61.1763 54V44C61.1763 41.2386 63.4148 39 66.1763 39C68.9377 39 71.1763 41.2386 71.1763 44Z"/>
</mask>
<path fill-rule="evenodd" clip-rule="evenodd" d="M71.1763 44V54C71.1763 56.7614 68.9377 59 66.1763 59C63.4148 59 61.1763 56.7614 61.1763 54V44C61.1763 41.2386 63.4148 39 66.1763 39C68.9377 39 71.1763 41.2386 71.1763 44Z" fill="#DDE2E8"/>
<path d="M70.1763 44V54H72.1763V44H70.1763ZM70.1763 54C70.1763 56.2091 68.3854 58 66.1763 58V60C69.49 60 72.1763 57.3137 72.1763 54H70.1763ZM66.1763 58C63.9671 58 62.1763 56.2091 62.1763 54H60.1763C60.1763 57.3137 62.8626 60 66.1763 60V58ZM62.1763 54V44H60.1763V54H62.1763ZM66.1763 38C62.8626 38 60.1763 40.6863 60.1763 44H62.1763C62.1763 41.7909 63.9671 40 66.1763 40V38ZM72.1763 44C72.1763 40.6863 69.49 38 66.1763 38V40C68.3854 40 70.1763 41.7909 70.1763 44H72.1763Z" fill="#778DA8" mask="url(#path-29-inside-1_1361_37176)"/>
<path d="M61.1763 42.5C62.6763 41.5 66.6763 40.1 70.6763 42.5" stroke="#778DA8"/>
<circle cx="66.1763" cy="54" r="4.5" stroke="#778DA8"/>
<circle r="3.5" transform="matrix(1 0 0 -1 112.676 42.5)" fill="#EBEEF1"/>
</svg>

<svg width="124" height="124" fill="none" xmlns="http://www.w3.org/2000/svg">
  <circle cx="65.7" cy="58.5" r="43" fill="#EBEEF1" stroke="#B7C2CE"/>
  <rect width="35" height="35" x="8.7" y="35" fill="#fff" stroke="#B7C2CE" rx="1.5" transform="rotate(-35.8 8.7 35)"/>
  <rect width="28" height="28" x="13.6" y="35.8" fill="#EBEEF1" rx="1" transform="rotate(-35.8 13.6 35.8)"/>
  <circle cx="24.8" cy="37.6" r="2" fill="#99A9BA" transform="rotate(-35.8 24.8 37.6)"/>
  <path fill="#99A9BA" d="m28.5 41.7-.5 6.1c0 .4.5.7.8.4l6.4-4.6c.3-.2.2-.8-.2-.9l-6-1.5c-.2 0-.5.2-.5.5Z"/>
  <path fill="#B7C2CE" d="m33.3 35.6-1.1 9.2c-.1.4.4.7.7.5l10.3-7.5c.4-.2.3-.8-.2-.9l-9-1.7c-.4 0-.6.1-.7.4Z"/>
  <rect width="35" height="35" x="83.8" y="11.7" fill="#fff" stroke="#B7C2CE" rx="1.5" transform="rotate(38.8 83.8 11.7)"/>
  <rect width="28" height="28" x="84.4" y="16.6" fill="#EBEEF1" rx="1" transform="rotate(38.8 84.4 16.6)"/>
  <circle cx="85.6" cy="27.9" r="2" fill="#99A9BA" transform="rotate(38.8 85.6 27.9)"/>
  <path fill="#99A9BA" d="m82.6 32.5-6 1.2c-.4.1-.5.6-.2.9l6.1 5c.3.2.8 0 .8-.5V33c0-.3-.4-.5-.7-.5Z"/>
  <path fill="#B7C2CE" d="M89.8 35.6 80.6 37c-.4 0-.6.6-.2.9l9.8 8c.4.2.9 0 .9-.5l-.7-9.2c0-.3-.3-.5-.6-.5Z"/>
  <rect width="35" height="35" x="44.8" y="80.6" fill="#fff" stroke="#B7C2CE" rx="1.5" transform="rotate(-25.2 44.8 80.6)"/>
  <rect width="28" height="28" x="49.5" y="82.3" fill="#EBEEF1" rx="1" transform="rotate(-25.2 49.5 82.3)"/>
  <circle cx="60.1" cy="86.1" r="2" fill="#99A9BA" transform="rotate(-25.2 60.1 86)"/>
  <path fill="#99A9BA" d="m63 90.8-1.5 6c-.1.3.3.7.7.5l7.1-3.4c.4-.1.4-.7 0-.9l-5.6-2.6a.5.5 0 0 0-.7.4Z"/>
  <path fill="#B7C2CE" d="m69 85.7-3 8.8c0 .4.4.8.8.6l11.5-5.4c.4-.2.3-.7 0-1l-8.7-3.3a.5.5 0 0 0-.6.3Z"/>
  <circle cx="47.7" cy="43.5" r="6" fill="#DDE2E8" stroke="#778DA8"/>
  <circle cx="84.7" cy="43.5" r="6" fill="#DDE2E8" stroke="#778DA8"/>
  <path fill="#DDE2E8" stroke="#778DA8" d="M41.7 41.5c-5.3 2.6-9.4 13-11.2 18.8a1 1 0 0 0 .9 1.3L58.7 64c.3 0 .6-.1.8-.4l5.3-5.7c.2-.3.3-.6.3-1L61.7 42l-6.5 1.4a1 1 0 0 1-1-.2 11.6 11.6 0 0 0-12.5-1.7Zm49 0c5.2 2.6 9.4 13 11.1 18.8a1 1 0 0 1-.8 1.3L73.7 64a1 1 0 0 1-.9-.4L67.5 58a1 1 0 0 1-.2-1l3.4-15 6.5 1.4c.3 0 .6 0 .9-.2 2.2-1.9 7.3-4.3 12.6-1.7Z"/>
  <circle cx="44.2" cy="68" r="15.5" fill="#DDE2E8" stroke="#778DA8"/>
  <circle cx="89.2" cy="68" r="15.5" fill="#DDE2E8" stroke="#778DA8"/>
  <circle cx="44.2" cy="68" r="11.5" fill="#DDE2E8" stroke="#778DA8"/>
  <circle cx="89.2" cy="68" r="11.5" fill="#DDE2E8" stroke="#778DA8"/>
  <circle cx="44.2" cy="66" r="9.5" fill="#DDE2E8" stroke="#778DA8"/>
  <circle cx="89.2" cy="66" r="9.5" fill="#DDE2E8" stroke="#778DA8"/>
  <path stroke="#fff" stroke-linecap="round" d="M44.2 60a6 6 0 0 0-6 6m51-6a6 6 0 0 0-6 6"/>
  <mask id="a" fill="#fff">
    <path fill-rule="evenodd" d="M71.2 44v10a5 5 0 0 1-10 0V44a5 5 0 1 1 10 0Z" clip-rule="evenodd"/>
  </mask>
  <path fill="#DDE2E8" fill-rule="evenodd" d="M71.2 44v10a5 5 0 0 1-10 0V44a5 5 0 1 1 10 0Z" clip-rule="evenodd"/>
  <path fill="#778DA8" d="M70.2 44v10h2V44h-2Zm0 10a4 4 0 0 1-4 4v2a6 6 0 0 0 6-6h-2Zm-4 4a4 4 0 0 1-4-4h-2a6 6 0 0 0 6 6v-2Zm-4-4V44h-2v10h2Zm4-16a6 6 0 0 0-6 6h2a4 4 0 0 1 4-4v-2Zm6 6a6 6 0 0 0-6-6v2a4 4 0 0 1 4 4h2Z" mask="url(#a)"/>
  <path stroke="#778DA8" d="M61.2 42.5c1.5-1 5.5-2.4 9.5 0"/>
  <circle cx="66.2" cy="54" r="4.5" stroke="#778DA8"/>
  <circle r="3.5" fill="#EBEEF1" transform="matrix(1 0 0 -1 112.7 42.5)"/>
</svg>
